icons/svg/eye-off.svg

<svg width="24" height="24" viewBox="0 0 24 24" fill="none" xmlns="http://www.w3.org/2000/svg">
<path d="M3.28155 21.7816L7.55956 17.5036M21.7815 3.28158L17.673 7.39017M14.3103 10.7528C14.0672 10.3033 13.6967 9.9328 13.2472 9.68964C12.8762 9.48894 12.4514 9.37499 12 9.37499C10.5502 9.37499 9.37498 10.5502 9.37498 12C9.37498 12.4514 9.48893 12.8762 9.68963 13.2472C9.93279 13.6967 10.3033 14.0672 10.7528 14.3104M14.3103 10.7528L10.7528 14.3104M14.3103 10.7528L17.673 7.39017M10.7528 14.3104L7.55956 17.5036M17.673 7.39017C17.2925 7.07134 16.8819 6.76868 16.4413 6.49558C15.1985 5.72522 13.7171 5.18999 12 5.18999C7.04383 5.18999 4.05194 9.64884 3.09052 11.3506C2.98031 11.5457 2.9252 11.6433 2.89344 11.7956C2.86995 11.9082 2.87 12.0916 2.89354 12.2043C2.92537 12.3565 2.98054 12.4541 3.09087 12.6492C3.60152 13.5521 4.68427 15.2313 6.32802 16.6088C6.70852 16.9277 7.11908 17.2304 7.55956 17.5036M19.74 9.5792C20.2682 10.2727 20.6586 10.9066 20.91 11.3516C21.02 11.5464 21.075 11.6438 21.1068 11.7959C21.1303 11.9084 21.1303 12.0917 21.1069 12.2042C21.0752 12.3563 21.0202 12.4537 20.9103 12.6485C19.9505 14.3497 16.9609 18.81 12 18.81C11.524 18.81 11.0661 18.7688 10.6264 18.6928" stroke="currentColor" stroke-width="1.5" stroke-linecap="round" stroke-linejoin="round"/>
</svg>

<svg xmlns="http://www.w3.org/2000/svg" width="24" height="24" fill="none" viewBox="0 0 24 24"><path stroke="currentColor" stroke-linecap="round" stroke-linejoin="round" stroke-width="1.5" d="m3.282 21.782 4.278-4.278M21.782 3.282 17.673 7.39m-3.363 3.363a2.64 2.64 0 0 0-1.063-1.063 2.625 2.625 0 1 0-2.494 4.62m3.557-3.557-3.557 3.557m3.557-3.557 3.363-3.363m-6.92 6.92L7.56 17.504M17.673 7.39c-.38-.319-.791-.621-1.232-.894C15.2 5.726 13.717 5.19 12 5.19c-4.956 0-7.948 4.459-8.91 6.16-.11.196-.165.293-.197.446a1.2 1.2 0 0 0 0 .408c.032.152.088.25.198.445.51.903 1.593 2.582 3.237 3.96.38.319.791.621 1.232.895m12.18-7.925c.528.694.919 1.328 1.17 1.773.11.194.165.292.197.444.023.112.023.296 0 .408-.032.152-.087.25-.197.444-.96 1.702-3.95 6.162-8.91 6.162q-.714-.002-1.374-.117"/></svg>
